X:520
T:Jim Erwin's
R:Hornpipe
C:Ed Reavy
M:4/4
L:1/8
Z:Joe Reavy
N:To Ed's friend, Jim Erwin, a \
N:talented dancer and dance instructor
N:from New York. This is one of
N:Ed's most popular hornpipes.
K:G
Bc|dBGB dgfg|ecAG FGAB|cBAG BGFG|(3ABA (3GFE ECB,C|
DB,G,B, DGFG|ECA,C EGAB|cAFA DAFA|G2 FA G2:||
Bc|d^cdf gdcd|eA^ce agfe|dgBd ceAc|BdGB ADFA|d^cdf gdcd|
eA^ce agfg|bgdB Afag|fecA G2:||
